resources/svg/restroom-women.svg

<svg xmlns="http://www.w3.org/2000/svg" viewBox="0 0 24 24" fill="currentColor"><path fill="none" stroke="currentColor" stroke-linecap="round" stroke-linejoin="round" stroke-width="2" d="M7,13.5 L11,8 L12,21 M17,13.5 L13,8 L12,21 M12,5 C12.5522847,5 13,4.55228475 13,4 C13,3.44771525 12.5522847,3 12,3 C11.4477153,3 11,3.44771525 11,4 C11,4.55228475 11.4477153,5 12,5 Z M11,8 L13,8 L14.5,16.5 L9.5,16.5 L11,8 Z"/></svg>

<svg viewBox="0 0 24 24"><path fill="none" stroke="currentColor" stroke-linecap="round" stroke-linejoin="round" stroke-width="2" d="M7 13.5L11 8l1 13m5-7.5L13 8l-1 13m0-16a1 1 0 1 0 0-2a1 1 0 0 0 0 2zm-1 3h2l1.5 8.5h-5L11 8z"/></svg>
